X: 1
T: Blackberry Bush, The
C: Trad; parts 3 & 4 by P/M Donald MacLeod MBE
M: 4/4
L: 1/8
R: reel
K: Dmaj
   de | f2fe dBBA | BddA BAAB |1,3 f2fe dBBA | Beef e2de :|2,4 d2ef edBA | Bdde d2 :|
|: de | faaf e2de | fded BAAB |1,3 d2ef edBA | Beef e2de :|2,4 d2ef edBA | Bdde d2 :|
|: dB | AAAB ABde | fded BAAB |1,3 AAAB ABdA | Beef fedB :|2,4 d2ef edBA | Bdde d2 :|
   de | f2fe faaf | e2fd BAAB | fefa afed | Beef fede | f2fe faaf |
y4 | e2fd BAAB | d2ef edBA | Bdde d2 |[| de | f2fe faaf | e2fd BAAB |
y4 | fefa afed | Beef fede | f2fa e2ef | d2dA BAAB | d2ef edBA | Bdde d2 |]
